<?xml version="1.0" encoding="UTF-8"?>
<map version="1.10" tiledversion="1.12.2" orientation="orthogonal" renderorder="right-down" width="20" height="20" tilewidth="32" tileheight="32" infinite="0" nextlayerid="2" nextobjectid="1">
 <tileset firstgid="1" name="Sewer_Tiles" tilewidth="32" tileheight="32" tilecount="88" columns="8">
  <image source="sewer_1.png" width="256" height="352"/>
 </tileset>
 <layer id="1" name="Tile Layer 1" width="20" height="20">
  <data encoding="csv">
1,1,1,1,1,1,1,1,1,1,1,86,86,1,1,1,1,1,86,86,
1,1,1,86,86,1,1610612745,1,1,1,1,86,86,1,1,1,1,1,86,86,
1,1,1,86,86,1,1610612745,1,86,86,1,1,1,1,1,86,86,1,1,1,
1,1,1,1,1,1,1610612745,1,86,86,1,1,1,1,1,86,86,1,1,1,
86,86,1,1,1,1,1610612745,1,1,1,1,1,1,1,1,86,86,1,1,1,
86,86,1,1,1,1,1610612745,9,9,9,9,9,9,9,9,9,9,9,9,9,
1,1,1,1,1,1,1,1,1,1,1,1,1,1,1,1,1,1,1,1,
86,86,1,1,1,1,86,86,1,1,1,1,1,1,1,86,86,1,1,1,
86,86,9,9,9,9,86,86,9,9,9,9,9,9,9,86,86,19,20,21,
3221225489,3221225489,3221225489,3221225489,3221225489,3221225489,3221225489,3221225489,3221225489,3221225489,3221225489,3221225489,3221225489,3221225489,3221225489,3221225489,3221225489,27,28,29,
17,17,17,17,17,17,17,17,17,17,17,17,17,17,17,17,17,1,1,2684354598,
1610612754,1610612737,86,1610612737,1610612737,1610612737,1610612737,1610612737,1610612737,1610612737,1610612737,1610612737,86,6,1,1,1,1,1,2684354599,
2684354577,1610612737,1610612737,1610612737,1610612737,86,1610612737,1610612737,1610612737,1610612737,1610612737,1610612737,1,2684354564,1,1,1,1,1,2684354598,
2684354577,1610612737,1610612737,1610612737,1610612737,1610612737,86,1610612737,1610612737,1610612737,1610612737,1610612737,1610612737,2684354565,1,1,1,1,1,2684354599,
2684354577,1610612737,1610612737,1610612737,1610612737,1610612737,1610612737,1610612737,1610612737,1610612737,1610612737,1610612737,86,6,1,1,1,1,1,2684354598,
2684354577,1610612737,1610612737,1610612737,9,1610612737,1610612737,1610612737,9,1610612737,1610612737,1610612737,86,1,1,1,1,1,1,2684354599,
86,86,86,1,2684354577,1,1,1,1610612753,1,86,86,86,1,1,1,1,1,1,2684354598,
86,86,86,1,2684354577,1,1,1,1610612753,1,86,86,86,1,1,1,1,1,1,2684354599,
86,86,86,1,2684354577,1,1,1,1610612753,1,86,86,86,1,1,1,1,1,1,2684354598,
86,86,86,1,2684354577,1,1,1,1610612753,1,86,86,86,1,1,1,1,1,1,2684354599
</data>
 </layer>
</map>
